X:1
T:Che Borka Mougher of the Donne
Z:id:hn-polka-83
M:2/4
L:1/8
K:D
A>B cB|AB AB/c/|dB BA/B/|dB BA|BA Bd|ed BA|BA Bd|ef ed|ef ef/e/|dB BA|1 B2 AB:|2 BA AB||

-----------------------------------------------------
m1 = sample(model, T=1, max_length=2_000)

